X:6
T:Charlie Hunter's Jig
S:Bernie Waugh
R:Jig
M:6/8
L:1/8
K:D
|:z|\
"D"DFA "G"GBd|"D"Adf a2g|fed "Bm"Bcd|"E"ecA "A"GFE|
"D"DFA "G"GBd|"D"Adf a2g|fef "A"gec|"D"edc d2:|
|:f/g/|\
"D"afd dcd|"G"BGG G2F|"E7"E^GB e2d|"A"cAA A2a/g/|
"D"fdA FDF|"G"GBd g2g|"D"fef "A"gec|"D"edc d2:|

